!!!COM: Scriabin, Alexander
!!!OTL@@FR: Masque
!!!OTL@@EN:
!!!OPR@@FR: 2 Poèmes
!!!OPS: 63
!!!ONM: 1
!!!ODT: 1911–1912
!!!AGN: Poem
**kern	**kern	**dynam
*staff2	*staff1	*staff1/2
*Ipiano	*Ipiano	*
*clefF4	*clefG2	*
*k[]	*k[]	*
*M6/8	*M6/8	*
8r	8aL	.
8C 8B-X	8f#XJ	.
=1	=1	=1
4d	8b-XL	.
.	8a	.
[8d-X	8f#XJ	.
8d-]	8b-L	.
8r	8a	.
8C 8B-X	8f#J	.
=2	=2	=2
4.dn	8b-XL	.
.	8dd	.
.	[8eeJ	.
8d-X	8eeL]	.
8r	8cc	.
8E-X 8d-	8aJ	.
=3	=3	=3
4.f	8dd-XL	.
.	8ff	.
.	[8ggJ	.
8f-X	8ggL]	.
16bLL	8cc#X 8ffn	.
16g	.	.
16c#X	8aaJ	.
16GJJ	.	.
=4	=4	=4
4.AA	4.bb	.
4r	8r	.
.	8eL	.
8AA 8G	8c#XJ	.
=5	=5	=5
*^	*^	*
*	*	*	*^	*
4B	4rEE	2.ryy	8e#XL	4.r	.
.	.	.	8f#X	.	.
[8B-X	8rEE	.	8d#XJ	.	.
4.B-]	8rEE	.	8gL	8r	.
.	[4E-X	.	8g#X	[4c#X\	.
.	.	.	[8fnJ	.	.
=6	=6	=6	=6	=6	=6
[4.A	4.E-_	8aL	4.f_ [4.a	4.d-X\_	.
.	.	8dd-X	.	.	.
.	.	[8ee-XJ	.	.	.
8A]	8FF 8E-]	8ee-L]	8f] 8a]	8d-\]	.
8rc	8rEE	8f#X	8rc	8r	.
8BBn 8A	8rEE	8d#XJ	8rc	8r	.
*v	*v	*	*	*	*
*	*v	*v	*v	*
=7	=7	=7
16%3c#X	8gL	.
.	8g#X	.
[16%3cn	.	.
.	8e#XJ	.
8c]	8aL	.
8r	8g#	.
8C#X 8B	8e#J	.
=8	=8	=8
16%3d#X	8aL	.
.	8a#X	.
[16%3dn	.	.
.	8f##XJ	.
4.d]	8bL	.
.	8b-X	.
.	8gJ	.
=9	=9	=9
2.r	8bnL	.
.	8b-X	.
.	8gJ	.
.	8bnL	.
.	8b-X	.
.	8gJ	.
=10	=10	=10
2.GG 2.D-X	2.c-X 2.f 2.b-X	.
=11	=11	=11
[4.EE [4.AA#X	[4.dn [4.g#X [4.cc#X	.
8EE] 8AA#]	8d] 8g#] 8cc#]	.
8DD-XL 8GGn	8ffL	.
8FJ 8c-X 8f	8bb-XJ	.
=12	=12	=12
4.e-X	8aaL	.
.	8ff	.
.	8ee-XJ	.
4r	8cc-XL	.
.	8b-X	.
8r	8gnJ	.
=13	=13	=13
2.r	8cc-XL	.
.	8b-X	.
.	8gJ	.
.	8cc-L	.
.	8b-	.
.	8gJ	.
=14	=14	=14
2.GG 2.D-X	2.c-X 2.f 2.b-X	.
=15	=15	=15
[4.EE [4.AA#X	[4.dn [4.g#X [4.cc#X	.
8EE] 8AA#]	8d] 8g#] 8cc#]	.
8DD-XL 8GGn	8ffL	.
8FJ 8c-X 8f	8bb-XJ	.
=16	=16	=16
4.e-X	8aaL	.
.	8ff	.
.	8ee-XJ	.
4r	8cc-XL	.
.	8b-X	.
8r	8gnJ	.
=17	=17	=17
2.r	8cc-XL	.
.	8dd	.
.	8bnJ	.
.	8ee-XL	.
.	8dd	.
.	8bJ	.
=18	=18	=18
2.BB 2.F	2.e-X 2.a 2.dd	.
=19	=19	=19
[4.AA-X [4.D	[4.g-X [4.cc [4.ff	.
8AA-] 8D]	8g-] 8cc] 8ff]	.
8FFL 8BB	8aanL	.
8AnJ 8e-X 8an	8dddJ	.
=20	=20	=20
4.g	8ccc#XL	.
.	8aa	.
.	8ggnJ	.
4r	8ee-XL	.
.	8dd	.
8r	8bJ	.
=21	=21	=21
4r	8ee-XL	.
.	8dd	.
8r	8bJ	.
8r	8ee-	.
8AA-XL 8D	8cccnL	.
8cJ 8g-X 8cc	8fffJ	.
=22	=22	=22
4.b-X	8eeenL	.
.	8ccc	.
.	8bb-XJ	.
4r	8gg-XL	.
.	8ff	.
8r	8ddJ	.
=23	=23	=23
2.r	8gg-XL	.
.	8dd-X	.
.	8b-XJ	.
.	8ddnL	.
.	8a	.
.	8f#XJ	.
=24	=24	=24
4r	8b-XL	.
.	8a	.
8r	8f#XJ	.
4r	8b-L	.
.	8a	.
8C 8B-X	8f#J	.
=25	=25	=25
4d	8b-XL	.
.	8a	.
[8d-X	8f#XJ	.
8d-]	8b-L	.
8r	8a	.
8C 8B-X	8f#J	.
=26	=26	=26
4.dn	8b-XL	.
.	8dd	.
.	[8eeJ	.
8d-X	8eeL]	.
8r	8cc	.
8E-X 8d-	8aJ	.
=27	=27	=27
4.f	8dd-XL	.
.	8ff	.
.	[8ggJ	.
8f-X	8ggL]	.
16bLL	8cc#X 8ffn	.
16g	.	.
16c#X	8aaJ	.
16GJJ	.	.
=28	=28	=28
4.AA	4.bb	.
4r	8r	.
.	8ccnL	.
8E-X 8d-X	8aJ	.
=29	=29	=29
4.f	8dd-XL	.
.	8ff	.
.	[8ggJ	.
8f-X	8ggL]	.
16bLL	8cc#X 8ffn	.
16g	.	.
16c#X	8aaJ	.
16GJJ	.	.
=30	=30	=30
*	*^	*
4.AA	4.bb	4.rc	.
8r	8raa	8rc	.
20bLL	8ffL 8fff	4ccc#X	.
20g	.	.	.
20c#X	.	.	.
.	8aaJ 8aaa	.	.
20G	.	.	.
20AAJJ	.	.	.
*	*v	*v	*
=31	=31	=31
4.AAA	4.bb 4.bbb	.
4r	4r	.
8r	8r	.
==	==	==
*-	*-	*-
!!!system-decoration: {(*)}
!!!ENC: Bryan Jacob Bell
!!!END: November 2021 to April 2022
!!!PED: Günter Philipp
!!!PTL: Ausgewählte Klavierwerke (Edition Peters)
